packages/ffe-icons/icons/filled/md/single_bed.svg

<svg xmlns="http://www.w3.org/2000/svg" height="24" viewBox="0 -960 960 960" width="24"><path d="M180.001-468.307q0-29.947 21.241-50.819 21.24-20.873 51.067-20.873h7.692V-647.69q0-29.827 21.241-51.067 21.24-21.24 51.067-21.24h295.382q29.827 0 51.067 21.24 21.241 21.24 21.241 51.067v107.691h7.692q29.827 0 51.067 21.241 21.241 21.24 21.241 51.067v123.69q0 18.385-12.808 31.192-12.807 12.808-31.286 12.808l-17.675 69.307q-1.572 4.935-5.504 7.814-3.931 2.879-8.649 2.879h-8.154q-4.718 0-8.649-2.879-3.932-2.879-5.504-7.814l-17.769-69.307H295.999l-17.769 69.307q-1.572 4.935-5.504 7.814-3.931 2.879-8.649 2.879h-8.154q-4.718 0-8.649-2.879-3.932-2.879-5.504-7.814l-17.675-69.307q-18.479 0-31.286-12.808-12.808-12.807-12.808-31.192v-124.306Zm329.998-71.692H640V-647.69q0-5.385-3.462-8.847-3.462-3.462-8.847-3.462H509.999v120Zm-189.999 0h130.001v-120H332.309q-5.385 0-8.847 3.462Q320-653.075 320-647.69v107.691Z"/></svg>

<svg xmlns="http://www.w3.org/2000/svg" height="24" viewBox="0 -960 960 960" width="24"><path d="M180-468.31q0-29.94 21.24-50.82Q222.48-540 252.31-540H260v-107.69q0-29.83 21.24-51.07Q302.48-720 332.31-720h295.38q29.83 0 51.07 21.24Q700-677.52 700-647.69V-540h7.69q29.83 0 51.07 21.24Q780-497.52 780-467.69V-344q0 18.38-12.81 31.19Q754.38-300 735.91-300l-17.68 69.31q-1.57 4.93-5.5 7.81-3.94 2.88-8.65 2.88h-8.16q-4.71 0-8.65-2.88-3.93-2.88-5.5-7.81L664-300H296l-17.77 69.31q-1.57 4.93-5.5 7.81-3.94 2.88-8.65 2.88h-8.16q-4.71 0-8.65-2.88-3.93-2.88-5.5-7.81L224.09-300q-18.47 0-31.28-12.81Q180-325.62 180-344v-124.31ZM510-540h130v-107.69q0-5.38-3.46-8.85-3.46-3.46-8.85-3.46H510v120Zm-190 0h130v-120H332.31q-5.39 0-8.85 3.46-3.46 3.47-3.46 8.85V-540Z"/></svg>
